projects/oblique/icons/Home.svg

<?xml version="1.0" encoding="UTF-8"?><svg id="a" xmlns="http://www.w3.org/2000/svg" viewBox="0 0 24 24"><path d="M11.99973,1.37337L2.24973,7.00326v14.74707h19.5V7.00326L11.99973,1.37337ZM10.34641,20.24642v-7.75391h3.30664v7.75391h-3.30664ZM20.24973,20.25033h-5.09668v-9.25781h-6.30664v9.25781H3.74973V7.86947L11.99973,3.10579l8.25,4.76367v12.38086Z"/></svg>

<svg xmlns="http://www.w3.org/2000/svg" viewBox="0 0 24 24"><title>Home</title><path d="M11.99973,1.37337l-9.75,5.62989V21.75033h19.5V7.00326ZM10.34641,20.24642V12.49251h3.30664v7.75391Zm9.90332.00391H15.15305V10.99251H8.84641v9.25782H3.74973V7.86947l8.25-4.76368,8.25,4.76368Z" fill="#171717"/></svg>
